www/assets/images/test_icons/flags/ZM.svg

<svg fill="none" height="15" viewBox="0 0 21 15" width="21" xmlns="http://www.w3.org/2000/svg" xmlns:xlink="http://www.w3.org/1999/xlink"><mask id="a" height="15" maskUnits="userSpaceOnUse" width="21" x="0" y="0"><path d="m19 0h-17c-1.10457 0-2 .89543-2 2v11c0 1.1046.89543 2 2 2h17c1.1046 0 2-.8954 2-2v-11c0-1.10457-.8954-2-2-2z" fill="#fff"/></mask><g mask="url(#a)"><path d="m19 0h-17c-1.10457 0-2 .89543-2 2v11c0 1.1046.89543 2 2 2h17c1.1046 0 2-.8954 2-2v-11c0-1.10457-.8954-2-2-2z" fill="#0d8b00"/><g clip-rule="evenodd" fill-rule="evenodd"><path d="m19 6h2v9h-2z" fill="#f17d00"/><path d="m17 6h2v9h-2z" fill="#000"/><path d="m15 6h2v9h-2z" fill="#e11c00"/><path d="m14 3 3 1 1 1 1-1 3-1h-4l-1-1v1z" fill="#f17d00"/></g><path d="m19 .5h-17c-.82843 0-1.5.67157-1.5 1.5v11c0 .8284.67157 1.5 1.5 1.5h17c.8284 0 1.5-.6716 1.5-1.5v-11c0-.82843-.6716-1.5-1.5-1.5z" stroke="#000" stroke-opacity=".1"/></g></svg>

<svg width="21" height="15" viewBox="0 0 21 15" fill="none" xmlns="http://www.w3.org/2000/svg">
<mask id="mask0_3_7" style="mask-type:alpha" maskUnits="userSpaceOnUse" x="0" y="0" width="21" height="15">
<path d="M19 0H2C0.89543 0 0 0.89543 0 2V13C0 14.1046 0.89543 15 2 15H19C20.1046 15 21 14.1046 21 13V2C21 0.89543 20.1046 0 19 0Z" fill="white"/>
</mask>
<g mask="url(#mask0_3_7)">
<path d="M19 0H2C0.89543 0 0 0.89543 0 2V13C0 14.1046 0.89543 15 2 15H19C20.1046 15 21 14.1046 21 13V2C21 0.89543 20.1046 0 19 0Z" fill="#0D8B00"/>
<path fill-rule="evenodd" clip-rule="evenodd" d="M19 6H21V15H19V6Z" fill="#F17D00"/>
<path fill-rule="evenodd" clip-rule="evenodd" d="M17 6H19V15H17V6Z" fill="black"/>
<path fill-rule="evenodd" clip-rule="evenodd" d="M15 6H17V15H15V6Z" fill="#E11C00"/>
<path fill-rule="evenodd" clip-rule="evenodd" d="M14 3L17 4L18 5L19 4L22 3H18L17 2V3H14Z" fill="#F17D00"/>
<path d="M19 0.5H2C1.17157 0.5 0.5 1.17157 0.5 2V13C0.5 13.8284 1.17157 14.5 2 14.5H19C19.8284 14.5 20.5 13.8284 20.5 13V2C20.5 1.17157 19.8284 0.5 19 0.5Z" stroke="black" stroke-opacity="0.1"/>
</g>
</svg>
